X: 07105
T: SARAH BRYAN
C: Bob McQuillen 12 May 89
B: Bob's Note Book 7 #105
%R: C
Z: 2019 John Chambers <jc:trillian.mit.edu>
M: C
L: 1/8
K: D	% and A
fe \
| d2dB ABdA | BdAF AFEF | DFAB ABde | f2fd egfe |\
| d2dB ABdA | BdAF AFEF | DFAF EGBG | Acec d2 :|
K: A
|: cd \
| efec dBcd | efec AECE | FECE | A2Ac | ecAc B2cd |\
| efec dBcd | efec A2E2 | FECE Aced | c2A2 A2 :|
%%begintext align
%% I just thought that Art
%% and Laurie Bryan's sweet little daughter really
%% needed a tune, and when you meet her, you'll know
%% why!  Much love to you, Sarah, from Mac - xxoo :-)
%%endtext

%%sep 1 1 500

%%sep 1 1 500

